app/assets/images/general/icons/socials/in.svg

<svg width="14" height="14" viewBox="0 0 14 14" fill="none" xmlns="http://www.w3.org/2000/svg">
<g clip-path="url(#clip0)">
<path d="M3.06288 13.6831H0.22588V4.54705H3.06288V13.6831ZM1.64288 3.29905C1.31622 3.30063 0.996433 3.20528 0.723987 3.02505C0.451542 2.84482 0.238684 2.58782 0.112351 2.28657C-0.0139814 1.98533 -0.0481104 1.65337 0.0142833 1.33273C0.0766771 1.01208 0.232789 0.717142 0.462863 0.485247C0.692937 0.253353 0.986631 0.0949213 1.30678 0.0300024C1.62693 -0.0349164 1.95914 -0.00340464 2.26137 0.12055C2.5636 0.244505 2.82227 0.45533 3.00464 0.726347C3.18701 0.997364 3.28489 1.31639 3.28588 1.64305C3.28563 2.07993 3.11286 2.49903 2.80516 2.80916C2.49747 3.11929 2.07974 3.29536 1.64288 3.29905ZM13.6799 13.6831H10.8499V9.23605C10.8499 8.17605 10.8289 6.81705 9.37488 6.81705C7.89988 6.81705 7.67488 7.96805 7.67488 9.16005V13.6831H4.83988V4.54705H7.56088V5.79405H7.59988C7.87198 5.32839 8.26532 4.94527 8.73798 4.68552C9.21064 4.42577 9.74492 4.29911 10.2839 4.31905C13.1549 4.31905 13.6839 6.21005 13.6839 8.66505V13.6831H13.6799Z" fill="white"/>
</g>
<defs>
<clipPath id="clip0">
<rect width="13.683" height="13.683" fill="white"/>
</clipPath>
</defs>
</svg>

<svg width="14" height="14" fill="none" xmlns="http://www.w3.org/2000/svg"><g clip-path="url(#clip0)"><path d="M3.063 13.683H.226V4.547h2.837v9.136zM1.643 3.3a1.651 1.651 0 11-.016-3.302A1.651 1.651 0 011.643 3.3zM13.68 13.683h-2.83V9.236c0-1.06-.021-2.419-1.475-2.419-1.475 0-1.7 1.151-1.7 2.343v4.523H4.84V4.547h2.72v1.247h.04a2.981 2.981 0 012.684-1.475c2.87 0 3.4 1.891 3.4 4.346v5.018h-.004z" fill="#fff"/></g><defs><clipPath id="clip0"><path fill="#fff" d="M0 0h13.683v13.683H0z"/></clipPath></defs></svg>
